X:1
T:Parade Of The Tin Soldiers
T:Parade of the tin soldiers
T:Leon Jessel
C:Leon Jessel
Z:All Rights Reserved
L:1/4
M:4/4
K:C
V:1 treble nm="Electric Piano"
%%MIDI program 4
V:1
 z2 z2 || z2 z G/G/ | G3 G/G/ | G4 | G2 z G/G/ |:"C" E G G G/G/ |"G7" F G G G/G/ |"C" E G B A | %8
"G7" G/^F/=F/E/ D G/G/ |"C" E G G G/G/ |"G" D B B B/B/ |"C" A z"D7" d z |1"G7" G2 z G/G/ :|2 %13
"G7" G2 z (3E/F/G/ ||"A7" A A A A |"Dm" A/G/F/E/ D/E/F/G/ | A F/A/"A7" G E/G/ | %17
"Dm" F E D (3D/E/F/ |"G7" G G G G |"C" G/F/E/D/ C/D/E/F/ | G E/G/"G7" F D/F/ |"C" E D C c/c/ | %22
"Fm" c c/c/ c c/c/ |"C" e d c G/G/ |"G7" G3 G/G/ | G3 G/G/ | G4- | G2 z G/G/ ||"C" E G G G/G/ | %29
"G7" F G G G/G/ |"C" E G B A |"G7" G/^F/=F/E/ D G/G/ |"C" E G G G/G/ |"G7" D B B B/B/ | %34
"C" A z"D7" d z |"G7" G2 z G/G/ |"C" E G G G/G/ |"G7" F G G G/G/ |"C" E G B A | %39
"G7" G/^F/=F/E/ D G/G/ |"C" E G G G/G/ |"F" F A A c |"C" e z"G7" d z |"C" c3 z | %44
[K:F]"F" F A C/ ^C E/ | F A C/^C/D/E/ | F A C/^C/D/E/ | F A A, z || c/f/ A d c | c/f/ A d c | %50
 c c c f |"C7" f e e z | c/f/ A d c | c/f/ A d c | c c c g |"F" g f f z | c/f/ A d c | c/f/ A d c | %58
 c3/2 c/ c f |"Am" f e e z | e/a/ e e/a/ e | E/A/ E E/A/ E |"E7" e e e/d/c/=B/ |"Am" A A A A | %64
"E7" =B2 E =B |"Am" c2 A c |"E7" =B d c =B |"Am" c =B A A |"E7" =B2 E =B |"Am" c2 A A/c/ | %70
"E7" e e/e/ e d |"Am" c =B A (3A/c/e/ | a (3A/c/e/ a (3A/"^D.S.alCoda"c/e/ | a z"C7" c2 || %74
"^Coda" c3/2 c/"F7" c a |"Bb" a g g z |"G7" f3/2 f/ f d |"F" d c"D7" B A |"Gm" G/A/B/c/"C7" d E | %79
"F" F2 f z |] %80

